src/2-landmarks/assistant--wait.svg

<svg width="1300" height="1000" viewBox="0 0 1300 1000" fill="none" xmlns="http://www.w3.org/2000/svg"><path fill-rule="evenodd" clip-rule="evenodd" d="M953.061 338.831c-1.835-.165-8.802-1.278-12.433-3.009-4.345-2.07-8.288-5.681-10.881-9.598-1.871-2.826-3.555-8.377-4.349-11.251a24.201 24.201 0 0 1-.693-3.691l-2.768-24.167c-.13-1.801-.141-3.965.015-5.762.419-4.765 1.692-8.901 4.076-13.093 2.384-4.191 5.288-7.801 9.24-10.719 3.952-2.918 9.017-5.282 13.877-6.44 4.846-1.048 6.715-1.197 11.673-.931 4.604.44 7.227 1.117 11.462 2.955 5.455 2.367 8.43 4.38 12.42 8.741 3.744 4.091 5.454 6.947 7.238 12.161 1.738 5.076 2.187 8.269 1.74 13.601-.188 2.242-.985 5.678-.985 5.678l-6.182 23.706c-.287 1.101-.633 2.184-1.088 3.227-1.109 2.544-3.503 7.554-6.247 10.348-4.054 4.129-7.254 5.886-12.863 7.482-4.977 1.417-13.252.762-13.252.762Zm.61-6.973c-1.478-.133-7.089-1.049-10.01-2.495-3.494-1.73-6.659-4.759-8.737-8.05-1.454-2.304-2.758-6.77-3.409-9.242a23.629 23.629 0 0 1-.63-3.555l-2.128-20.124c-.099-1.517-.101-3.34.031-4.854.353-4.016 1.392-7.504 3.326-11.043 1.935-3.538 4.287-6.589 7.481-9.06s7.283-4.478 11.203-5.47c3.909-.898 5.415-1.03 9.41-.822 3.708.357 5.82.918 9.227 2.453 4.388 1.976 6.779 3.662 9.98 7.323 3.004 3.434 4.373 5.835 5.794 10.221 1.384 4.271 1.736 6.959 1.358 11.453-.158 1.889-.812 4.786-.812 4.786l-5.009 19.794c-.268 1.059-.589 2.101-1.016 3.107-.933 2.198-2.831 6.254-4.988 8.549-3.28 3.491-5.865 4.982-10.389 6.344-4.015 1.209-10.682.685-10.682.685Z" fill="#000"/><path fill-rule="evenodd" clip-rule="evenodd" d="m900 875.001-14.09 6.232A20 20 0 0 0 874 899.524V900H0v100h1300V900h-290v-14.999a6.343 6.343 0 0 0 5.25-7.036L998.5 743.501l2.5-119c8.79 0 16.73-5.257 20.16-13.35l13.84-32.65 10-61.5s-11.47-93.965-29-130c-13.38-27.5-32.128-50.205-69-47-11.5 1-16 10.998-18.5 17.499-2.5 6.501-14.5 114.001-18 202.501-.435 11-11.5 157-11.5 157l1 158ZM1002.5 900v-23.022c2.93 0 5.19-2.556 4.85-5.46L992 743.414l2-115.583 8.88-109.595a7.448 7.448 0 0 0-.32-2.853l-29.776-95.157a1.928 1.928 0 0 1 3.663-1.201L1010 516.778l-5 60.034-3.43 39.187c-.04.449.32.835.77.835 6.16 0 11.72-3.682 14.13-9.353l13.03-30.669 9.5-60.034s-14.32-102.354-33-136.561c-15.465-28.324-37.861-33.891-51.367-34.387-7.516-.276-15.416 2.878-17.799 10.012-5.749 17.21-13.932 66.148-17.334 204.46L949 878.978l-19.974 7.965a9.999 9.999 0 0 0-6.264 10.087L923 900h79.5Zm-86.5 0 .383-5.942a15 15 0 0 1 9.546-13.019l15.571-6.038-14.5-158-12-140-9 140 2 161.94-19.881 8a10 10 0 0 0-6.106 7.489L881 900h35Z" fill="#000"/></svg>

<svg width="1300" height="1000" viewBox="0 0 1300 1000" fill="none" xmlns="http://www.w3.org/2000/svg">
<path fill-rule="evenodd" clip-rule="evenodd" d="M953.061 338.831C951.226 338.666 944.259 337.553 940.628 335.822C936.283 333.752 932.34 330.141 929.747 326.224C927.876 323.398 926.192 317.847 925.398 314.973C925.065 313.764 924.847 312.528 924.705 311.282L921.937 287.115C921.807 285.314 921.796 283.15 921.952 281.353C922.371 276.588 923.644 272.452 926.028 268.26C928.412 264.069 931.316 260.459 935.268 257.541C939.22 254.623 944.285 252.259 949.145 251.101C953.991 250.053 955.86 249.904 960.818 250.17C965.422 250.61 968.045 251.287 972.28 253.125C977.735 255.492 980.71 257.505 984.7 261.866C988.444 265.957 990.154 268.813 991.938 274.027C993.676 279.103 994.125 282.296 993.678 287.628C993.49 289.87 992.693 293.306 992.693 293.306L986.511 317.012C986.224 318.113 985.878 319.196 985.423 320.239C984.314 322.783 981.92 327.793 979.176 330.587C975.122 334.716 971.922 336.473 966.313 338.069C961.336 339.486 953.061 338.831 953.061 338.831ZM953.671 331.858C952.193 331.725 946.582 330.809 943.661 329.363C940.167 327.633 937.002 324.604 934.924 321.313C933.47 319.009 932.166 314.543 931.515 312.071C931.207 310.905 931.012 309.716 930.885 308.516L928.757 288.392C928.658 286.875 928.656 285.052 928.788 283.538C929.141 279.522 930.18 276.034 932.114 272.495C934.049 268.957 936.401 265.906 939.595 263.435C942.789 260.964 946.878 258.957 950.798 257.965C954.707 257.067 956.213 256.935 960.208 257.143C963.916 257.5 966.028 258.061 969.435 259.596C973.823 261.572 976.214 263.258 979.415 266.919C982.419 270.353 983.788 272.754 985.209 277.14C986.593 281.411 986.945 284.099 986.567 288.593C986.409 290.482 985.755 293.379 985.755 293.379L980.746 313.173C980.478 314.232 980.157 315.274 979.73 316.28C978.797 318.478 976.899 322.534 974.742 324.829C971.462 328.32 968.877 329.811 964.353 331.173C960.338 332.382 953.671 331.858 953.671 331.858Z" fill="black"/>
<path fill-rule="evenodd" clip-rule="evenodd" d="M900 875.001L885.91 881.233C878.67 884.435 874 891.607 874 899.524V900H0V1000H1300V900H1010V885.001C1013.35 884.442 1015.67 881.338 1015.25 877.965L998.5 743.501L1001 624.501C1009.79 624.501 1017.73 619.244 1021.16 611.151L1035 578.501L1045 517.001C1045 517.001 1033.53 423.036 1016 387.001C1002.62 359.501 983.872 336.796 947 340.001C935.5 341.001 931 350.999 928.5 357.5C926 364.001 914 471.501 910.5 560.001C910.065 571.001 899 717.001 899 717.001L900 875.001ZM1002.5 900V876.978C1005.43 876.978 1007.69 874.422 1007.35 871.518L992 743.414L994 627.831L1002.88 518.236C1002.96 517.273 1002.85 516.304 1002.56 515.383L972.784 420.226C972.396 418.985 973.323 417.723 974.624 417.723C975.447 417.723 976.18 418.246 976.447 419.025L1010 516.778L1005 576.812L1001.57 615.999C1001.53 616.448 1001.89 616.834 1002.34 616.834C1008.5 616.834 1014.06 613.152 1016.47 607.481L1029.5 576.812L1039 516.778C1039 516.778 1024.68 414.424 1006 380.217C990.535 351.893 968.139 346.326 954.633 345.83C947.117 345.554 939.217 348.708 936.834 355.842C931.085 373.052 922.902 421.99 919.5 560.302L949 878.978L929.026 886.943C924.952 888.567 922.411 892.658 922.762 897.03L923 900H1002.5ZM916 900L916.383 894.058C916.759 888.23 920.484 883.15 925.929 881.039L941.5 875.001L927 717.001L915 577.001L906 717.001L908 878.941L888.119 886.941C884.933 888.223 882.627 891.051 882.013 894.43L881 900H916Z" fill="black"/>
</svg>
